rospo-newyear-dark/symbolic/status/network-vpn-acquiring-symbolic.svg

<svg height="16" width="16" xmlns="http://www.w3.org/2000/svg"><g fill="#d3dae3"><path d="m5 8a2 2 0 0 1 -2 2 2 2 0 0 1 -2-2 2 2 0 0 1 2-2 2 2 0 0 1 2 2z"/><path d="m10 8a2 2 0 0 1 -2 2 2 2 0 0 1 -2-2 2 2 0 0 1 2-2 2 2 0 0 1 2 2z"/><path d="m15 8a2 2 0 0 1 -2 2 2 2 0 0 1 -2-2 2 2 0 0 1 2-2 2 2 0 0 1 2 2z"/><path d="m4.5 4c-1.0611 0-2.0244.384-2.7949 1h5.6035c-.7797-.6274-1.757-1-2.8086-1zm-3.74023 7c .80833 1.206 2.18303 2 3.74023 2 1.5263 0 2.9028-.774 3.7246-2zm11.24023 0v1h3v-1z" opacity=".3"/></g></svg>

<svg xmlns="http://www.w3.org/2000/svg" width="16" height="16" version="1.1">
 <path style="fill:#d3dae3" d="M 5,8 A 2,2 0 0 1 3,10 2,2 0 0 1 1,8 2,2 0 0 1 3,6 2,2 0 0 1 5,8 Z"/>
 <path style="fill:#d3dae3" d="M 10,8 A 2,2 0 0 1 8,10 2,2 0 0 1 6,8 2,2 0 0 1 8,6 2,2 0 0 1 10,8 Z"/>
 <path style="fill:#d3dae3" d="M 15,8 A 2,2 0 0 1 13,10 2,2 0 0 1 11,8 2,2 0 0 1 13,6 2,2 0 0 1 15,8 Z"/>
 <path style="fill:#d3dae3;opacity:0.3" d="M 4.5 4 C 3.4389 4 2.4756 4.384 1.7051 5 L 7.3086 5 C 6.5289 4.3726 5.5516 4 4.5 4 z M 0.75977 11 C 1.5681 12.206 2.9428 13 4.5 13 C 6.0263 13 7.4028 12.226 8.2246 11 L 0.75977 11 z M 12 11 L 12 12 L 15 12 L 15 11 L 12 11 z"/>
</svg>
